public/images/cafe-josef/3.svg

<svg width="203" height="31" viewBox="0 0 203 31" fill="none" xmlns="http://www.w3.org/2000/svg">
<path d="M10.0626 30.4493C8.72723 30.4493 7.65396 30.2246 6.84277 29.7754C6.03159 29.3136 5.4076 28.7957 4.9708 28.2216C4.53401 27.6351 4.19706 27.1546 3.95994 26.7802H3.58555V30H0.515513V2.10763H3.69786V12.4035H3.95994C4.19706 12.0416 4.52777 11.5798 4.95208 11.0182C5.3764 10.4441 5.98791 9.93247 6.78662 9.4832C7.58532 9.03392 8.66483 8.80929 10.0251 8.80929C11.7848 8.80929 13.3323 9.25232 14.6676 10.1384C16.003 11.012 17.045 12.26 17.7938 13.8823C18.5551 15.4922 18.9357 17.3954 18.9357 19.5918C18.9357 21.8008 18.5613 23.7227 17.8125 25.3575C17.0637 26.9799 16.0217 28.2341 14.6863 29.1202C13.351 30.0062 11.8097 30.4493 10.0626 30.4493ZM9.65073 27.5664C10.9861 27.5664 12.103 27.2108 13.0016 26.4994C13.9001 25.7756 14.574 24.8084 15.0233 23.5979C15.485 22.3873 15.7159 21.0395 15.7159 19.5544C15.7159 18.0818 15.4913 16.7527 15.042 15.5671C14.5927 14.3815 13.9188 13.4393 13.0203 12.7404C12.1342 12.0416 11.011 11.6921 9.65073 11.6921C8.34035 11.6921 7.24213 12.0228 6.35606 12.6843C5.47 13.3332 4.79609 14.2505 4.33433 15.4361C3.88506 16.6092 3.66042 17.9819 3.66042 19.5544C3.66042 21.1269 3.8913 22.5184 4.35305 23.7289C4.81481 24.927 5.48872 25.8692 6.37478 26.5556C7.27333 27.2295 8.36531 27.5664 9.65073 27.5664ZM28.1832 30.4867C26.8604 30.4867 25.6561 30.2371 24.5703 29.7379C23.4846 29.2263 22.6235 28.4899 21.987 27.529C21.3505 26.5681 21.0323 25.4074 21.0323 24.0471C21.0323 22.8491 21.2694 21.8819 21.7437 21.1456C22.2179 20.3968 22.8481 19.8102 23.6344 19.3859C24.4331 18.9491 25.3066 18.6247 26.2551 18.4125C27.2161 18.2003 28.1832 18.0319 29.1567 17.9071C30.4296 17.7448 31.4592 17.62 32.2454 17.5327C33.0441 17.4453 33.6244 17.2956 33.9864 17.0834C34.3607 16.8712 34.5479 16.5093 34.5479 15.9977V15.8853C34.5479 14.55 34.1798 13.5142 33.4435 12.7779C32.7197 12.0291 31.6152 11.6547 30.1301 11.6547C28.6076 11.6547 27.4095 11.9916 26.5359 12.6655C25.6623 13.327 25.0508 14.0383 24.7014 14.7996L21.6313 13.7139C22.1805 12.4409 22.9105 11.4488 23.8216 10.7374C24.7451 10.0261 25.7434 9.52688 26.8167 9.23984C27.9024 8.95281 28.9695 8.80929 30.0178 8.80929C30.6917 8.80929 31.4654 8.89041 32.339 9.05264C33.2126 9.2024 34.0612 9.52688 34.8849 10.0261C35.721 10.5128 36.4074 11.2553 36.9441 12.2537C37.4932 13.2396 37.7677 14.5625 37.7677 16.2223V30H34.5479V27.1546H34.3982C34.186 27.6039 33.8241 28.0906 33.3124 28.6147C32.8008 29.1264 32.1206 29.5694 31.272 29.9438C30.4358 30.3058 29.4063 30.4867 28.1832 30.4867ZM28.67 27.6039C29.9429 27.6039 31.0162 27.3543 31.8897 26.8551C32.7633 26.3559 33.4248 25.7132 33.874 24.927C34.3233 24.1283 34.5479 23.2983 34.5479 22.4372V19.4795C34.4107 19.6418 34.1112 19.7915 33.6494 19.9288C33.2001 20.0536 32.676 20.1659 32.0769 20.2658C31.4904 20.3656 30.9163 20.4529 30.3547 20.5278C29.7931 20.5902 29.3439 20.6401 29.0069 20.6776C28.1708 20.7899 27.3908 20.9709 26.6669 21.2205C25.9431 21.4576 25.3566 21.8132 24.9073 22.2875C24.4705 22.7617 24.2521 23.4107 24.2521 24.2343C24.2521 25.345 24.6639 26.1874 25.4876 26.7615C26.3238 27.3231 27.3845 27.6039 28.67 27.6039ZM41.8861 30V9.07136H44.9561V12.2537H45.1807C45.5676 11.2179 46.2602 10.3817 47.2586 9.74527C48.2695 9.09632 49.3989 8.77185 50.6469 8.77185C50.884 8.77185 51.1773 8.77809 51.5267 8.79057C51.8762 8.79057 52.1445 8.79681 52.3317 8.80929V12.0665C52.2194 12.0416 51.9698 12.0041 51.5829 11.9542C51.196 11.9043 50.7842 11.8793 50.3474 11.8793C49.3365 11.8793 48.4317 12.0915 47.633 12.5158C46.8343 12.9401 46.2041 13.5204 45.7423 14.2567C45.2931 14.993 45.0684 15.8354 45.0684 16.7839V30H41.8861ZM69.4789 30.4867C68.1561 30.4867 66.9518 30.2371 65.866 29.7379C64.7803 29.2263 63.9192 28.4899 63.2827 27.529C62.6462 26.5681 62.328 25.4074 62.328 24.0471C62.328 22.8491 62.5651 21.8819 63.0393 21.1456C63.5136 20.3968 64.1438 19.8102 64.93 19.3859C65.7287 18.9491 66.6023 18.6247 67.5508 18.4125C68.5117 18.2003 69.4789 18.0319 70.4524 17.9071C71.7253 17.7448 72.7549 17.62 73.5411 17.5327C74.3398 17.4453 74.9201 17.2956 75.282 17.0834C75.6564 16.8712 75.8436 16.5093 75.8436 15.9977V15.8853C75.8436 14.55 75.4755 13.5142 74.7392 12.7779C74.0153 12.0291 72.9109 11.6547 71.4258 11.6547C69.9032 11.6547 68.7052 11.9916 67.8316 12.6655C66.958 13.327 66.3465 14.0383 65.9971 14.7996L62.927 13.7139C63.4761 12.4409 64.2062 11.4488 65.1172 10.7374C66.0407 10.0261 67.0391 9.52688 68.1124 9.23984C69.1981 8.95281 70.2652 8.80929 71.3135 8.80929C71.9874 8.80929 72.7611 8.89041 73.6347 9.05264C74.5083 9.2024 75.3569 9.52688 76.1806 10.0261C77.0167 10.5128 77.7031 11.2553 78.2398 12.2537C78.7889 13.2396 79.0634 14.5625 79.0634 16.2223V30H75.8436V27.1546H75.6939C75.4817 27.6039 75.1198 28.0906 74.6081 28.6147C74.0965 29.1264 73.4163 29.5694 72.5677 29.9438C71.7315 30.3058 70.7019 30.4867 69.4789 30.4867ZM69.9656 27.6039C71.2386 27.6039 72.3118 27.3543 73.1854 26.8551C74.059 26.3559 74.7204 25.7132 75.1697 24.927C75.619 24.1283 75.8436 23.2983 75.8436 22.4372V19.4795C75.7064 19.6418 75.4068 19.7915 74.9451 19.9288C74.4958 20.0536 73.9717 20.1659 73.3726 20.2658C72.7861 20.3656 72.212 20.4529 71.6504 20.5278C71.0888 20.5902 70.6395 20.6401 70.3026 20.6776C69.4664 20.7899 68.6865 20.9709 67.9626 21.2205C67.2388 21.4576 66.6523 21.8132 66.203 22.2875C65.7662 22.7617 65.5478 23.4107 65.5478 24.2343C65.5478 25.345 65.9596 26.1874 66.7833 26.7615C67.6194 27.3231 68.6802 27.6039 69.9656 27.6039ZM86.3641 17.4204V30H83.1818V9.07136H86.2518V12.366H86.5513C87.038 11.2928 87.7806 10.4317 88.779 9.78271C89.7773 9.13376 91.069 8.80929 92.6539 8.80929C94.0641 8.80929 95.2996 9.09632 96.3604 9.67039C97.4212 10.2445 98.2449 11.1181 98.8314 12.2912C99.4305 13.4518 99.73 14.9244 99.73 16.709V30H96.5476V16.9336C96.5476 15.2988 96.1171 14.0196 95.256 13.0961C94.3949 12.1601 93.2218 11.6921 91.7367 11.6921C90.7133 11.6921 89.7961 11.9168 88.9849 12.366C88.1737 12.8153 87.531 13.4643 87.0567 14.3129C86.595 15.1615 86.3641 16.1973 86.3641 17.4204ZM111.711 30.4493C109.963 30.4493 108.422 30.0062 107.087 29.1202C105.751 28.2341 104.709 26.9799 103.961 25.3575C103.212 23.7227 102.837 21.8008 102.837 19.5918C102.837 17.3954 103.212 15.4922 103.961 13.8823C104.722 12.26 105.77 11.012 107.106 10.1384C108.441 9.25232 109.988 8.80929 111.748 8.80929C113.121 8.80929 114.2 9.03392 114.987 9.4832C115.785 9.93247 116.397 10.4441 116.821 11.0182C117.245 11.5798 117.576 12.0416 117.813 12.4035H118.075V2.10763H121.258V30H118.188V26.7802H117.813C117.576 27.1546 117.239 27.6351 116.802 28.2216C116.366 28.7957 115.742 29.3136 114.93 29.7754C114.132 30.2246 113.058 30.4493 111.711 30.4493ZM112.122 27.5664C113.42 27.5664 114.512 27.2295 115.398 26.5556C116.284 25.8692 116.958 24.927 117.42 23.7289C117.882 22.5184 118.113 21.1269 118.113 19.5544C118.113 17.9819 117.888 16.6092 117.439 15.4361C116.99 14.2505 116.316 13.3332 115.417 12.6843C114.531 12.0228 113.433 11.6921 112.122 11.6921C110.775 11.6921 109.651 12.0416 108.753 12.7404C107.854 13.4393 107.18 14.3815 106.731 15.5671C106.282 16.7527 106.057 18.0818 106.057 19.5544C106.057 21.0395 106.282 22.3873 106.731 23.5979C107.193 24.8084 107.873 25.7756 108.772 26.4994C109.67 27.2108 110.787 27.5664 112.122 27.5664ZM142.823 30.4493C140.876 30.4493 139.191 29.9875 137.768 29.064C136.358 28.128 135.266 26.8488 134.492 25.2265C133.731 23.6041 133.351 21.7508 133.351 19.6667C133.351 17.5327 133.744 15.6545 134.53 14.0321C135.316 12.3972 136.414 11.1181 137.825 10.1945C139.247 9.27104 140.901 8.80929 142.785 8.80929C144.258 8.80929 145.581 9.08384 146.754 9.63296C147.939 10.1696 148.907 10.9309 149.655 11.9168C150.417 12.9027 150.885 14.0508 151.059 15.3612H147.84C147.677 14.7247 147.384 14.1257 146.96 13.5641C146.535 13.0025 145.974 12.5532 145.275 12.2163C144.589 11.8668 143.771 11.6921 142.823 11.6921C141.575 11.6921 140.483 12.0166 139.547 12.6655C138.611 13.3145 137.881 14.2318 137.357 15.4173C136.832 16.5904 136.57 17.9695 136.57 19.5544C136.57 21.1643 136.826 22.5745 137.338 23.7851C137.85 24.9831 138.573 25.9129 139.509 26.5743C140.458 27.2357 141.562 27.5664 142.823 27.5664C144.083 27.5664 145.163 27.242 146.061 26.593C146.96 25.9316 147.553 25.033 147.84 23.8974H151.059C150.885 25.1329 150.435 26.2436 149.712 27.2295C149 28.2154 148.058 29.0016 146.885 29.5882C145.724 30.1622 144.37 30.4493 142.823 30.4493ZM160.232 30.4867C158.909 30.4867 157.705 30.2371 156.619 29.7379C155.533 29.2263 154.672 28.4899 154.036 27.529C153.399 26.5681 153.081 25.4074 153.081 24.0471C153.081 22.8491 153.318 21.8819 153.793 21.1456C154.267 20.3968 154.897 19.8102 155.683 19.3859C156.482 18.9491 157.355 18.6247 158.304 18.4125C159.265 18.2003 160.232 18.0319 161.206 17.9071C162.478 17.7448 163.508 17.62 164.294 17.5327C165.093 17.4453 165.673 17.2956 166.035 17.0834C166.41 16.8712 166.597 16.5093 166.597 15.9977V15.8853C166.597 14.55 166.229 13.5142 165.492 12.7779C164.768 12.0291 163.664 11.6547 162.179 11.6547C160.656 11.6547 159.458 11.9916 158.585 12.6655C157.711 13.327 157.1 14.0383 156.75 14.7996L153.68 13.7139C154.229 12.4409 154.959 11.4488 155.87 10.7374C156.794 10.0261 157.792 9.52688 158.866 9.23984C159.951 8.95281 161.018 8.80929 162.067 8.80929C162.741 8.80929 163.514 8.89041 164.388 9.05264C165.261 9.2024 166.11 9.52688 166.934 10.0261C167.77 10.5128 168.456 11.2553 168.993 12.2537C169.542 13.2396 169.817 14.5625 169.817 16.2223V30H166.597V27.1546H166.447C166.235 27.6039 165.873 28.0906 165.361 28.6147C164.85 29.1264 164.169 29.5694 163.321 29.9438C162.485 30.3058 161.455 30.4867 160.232 30.4867ZM160.719 27.6039C161.992 27.6039 163.065 27.3543 163.939 26.8551C164.812 26.3559 165.474 25.7132 165.923 24.927C166.372 24.1283 166.597 23.2983 166.597 22.4372V19.4795C166.46 19.6418 166.16 19.7915 165.698 19.9288C165.249 20.0536 164.725 20.1659 164.126 20.2658C163.539 20.3656 162.965 20.4529 162.404 20.5278C161.842 20.5902 161.393 20.6401 161.056 20.6776C160.22 20.7899 159.44 20.9709 158.716 21.2205C157.992 21.4576 157.405 21.8132 156.956 22.2875C156.519 22.7617 156.301 23.4107 156.301 24.2343C156.301 25.345 156.713 26.1874 157.536 26.7615C158.373 27.3231 159.433 27.6039 160.719 27.6039ZM183.22 9.07136V11.8044H171.951V9.07136H183.22ZM175.32 30V6.18853C175.32 4.99047 175.601 3.99208 176.163 3.19337C176.737 2.39467 177.473 1.79564 178.371 1.39628C179.27 0.996929 180.212 0.797252 181.198 0.797252C181.997 0.797252 182.646 0.865891 183.145 1.00317C183.657 1.12797 184.031 1.24652 184.268 1.35884L183.332 4.12936C183.17 4.06696 182.945 3.99832 182.658 3.92344C182.384 3.83608 182.009 3.79241 181.535 3.79241C180.474 3.79241 179.701 4.06696 179.214 4.61607C178.74 5.1527 178.503 5.93893 178.503 6.97476V30H175.32ZM193.853 30.4493C191.843 30.4493 190.102 30 188.63 29.1015C187.17 28.2029 186.047 26.9487 185.26 25.3388C184.474 23.7164 184.081 21.8382 184.081 19.7042C184.081 17.5576 184.468 15.6669 185.242 14.0321C186.015 12.3972 187.101 11.1181 188.499 10.1945C189.909 9.27104 191.556 8.80929 193.441 8.80929C194.527 8.80929 195.606 8.99025 196.679 9.35216C197.753 9.71407 198.726 10.3006 199.6 11.1118C200.486 11.923 201.191 12.9963 201.715 14.3316C202.239 15.6669 202.501 17.308 202.501 19.2549V20.6401H186.365V17.8696H200.76L199.281 18.9179C199.281 17.5202 199.063 16.2785 198.626 15.1927C198.189 14.107 197.534 13.2521 196.661 12.6281C195.8 12.0041 194.726 11.6921 193.441 11.6921C192.155 11.6921 191.051 12.0104 190.127 12.6468C189.216 13.2708 188.518 14.0882 188.031 15.0991C187.544 16.11 187.301 17.1957 187.301 18.3563V20.1909C187.301 21.7758 187.575 23.1174 188.124 24.2156C188.674 25.3138 189.441 26.15 190.427 26.7241C191.413 27.2856 192.555 27.5664 193.853 27.5664C194.689 27.5664 195.45 27.4479 196.136 27.2108C196.823 26.9612 197.416 26.593 197.915 26.1063C198.414 25.6071 198.795 24.9956 199.057 24.2718L202.164 25.1703C201.84 26.2186 201.291 27.1421 200.517 27.9408C199.756 28.7271 198.807 29.3448 197.671 29.7941C196.536 30.2309 195.263 30.4493 193.853 30.4493Z" fill="black"/>
</svg>

<svg xmlns="http://www.w3.org/2000/svg" width="203" height="31" fill="none"><path fill="#000" d="M10.063 30.45q-2.004 0-3.22-.675-1.217-.692-1.872-1.553A24 24 0 0 1 3.96 26.78h-.374V30H.516V2.108h3.182v10.295h.262q.356-.542.992-1.385.636-.861 1.835-1.535 1.197-.674 3.238-.674 2.64 0 4.643 1.33 2.002 1.31 3.126 3.743 1.142 2.415 1.142 5.71 0 3.313-1.123 5.766-1.124 2.433-3.127 3.762t-4.623 1.33m-.412-2.884q2.003 0 3.35-1.067 1.35-1.084 2.022-2.901.693-1.815.693-4.044 0-2.208-.674-3.987T13.02 12.74q-1.329-1.048-3.37-1.048-1.965 0-3.294.992-1.329.975-2.022 2.752-.674 1.76-.674 4.118t.693 4.175q.693 1.797 2.022 2.827 1.347 1.01 3.276 1.01m18.532 2.92q-1.984 0-3.613-.748-1.628-.768-2.583-2.209-.954-1.441-.955-3.482 0-1.797.712-2.901a5 5 0 0 1 1.89-1.76 10 10 0 0 1 2.621-.973q1.441-.319 2.902-.506a200 200 0 0 1 3.088-.374q1.2-.131 1.741-.45.562-.318.562-1.085v-.113q0-2.002-1.105-3.107-1.085-1.123-3.313-1.123-2.283 0-3.594 1.01-1.31.992-1.835 2.135l-3.07-1.086q.825-1.91 2.19-2.977a8.5 8.5 0 0 1 2.996-1.497 12.5 12.5 0 0 1 3.2-.43q1.012 0 2.322.243 1.31.225 2.546.973 1.253.73 2.06 2.228.823 1.48.823 3.968V30h-3.22v-2.845h-.15q-.318.674-1.086 1.46-.767.767-2.04 1.329-1.254.543-3.089.543m.487-2.882q1.91 0 3.22-.749 1.31-.75 1.984-1.928.675-1.199.674-2.49V19.48q-.206.242-.899.449-.673.187-1.572.337-.88.15-1.722.262l-1.348.15q-1.254.168-2.34.543-1.085.355-1.76 1.067-.654.711-.655 1.946 0 1.666 1.236 2.528 1.253.842 3.182.842M41.886 30V9.071h3.07v3.183h.225q.58-1.554 2.078-2.509 1.516-.973 3.388-.973.355 0 .88.019a13 13 0 0 1 .805.018v3.258a11 11 0 0 0-.75-.113 10 10 0 0 0-1.235-.075q-1.515 0-2.714.637a4.9 4.9 0 0 0-1.89 1.74q-.675 1.106-.675 2.528V30zm27.593.487q-1.984 0-3.613-.75-1.629-.766-2.583-2.208-.955-1.441-.955-3.482 0-1.797.711-2.901a5 5 0 0 1 1.891-1.76 10 10 0 0 1 2.62-.973q1.443-.319 2.902-.506a200 200 0 0 1 3.09-.374q1.197-.131 1.74-.45.561-.318.562-1.085v-.113q0-2.002-1.105-3.107-1.086-1.123-3.313-1.123-2.284 0-3.594 1.01-1.31.992-1.835 2.135l-3.07-1.086q.825-1.91 2.19-2.977a8.5 8.5 0 0 1 2.995-1.497 12.5 12.5 0 0 1 3.202-.43q1.01 0 2.32.243 1.311.225 2.547.973 1.254.73 2.059 2.228.823 1.48.823 3.968V30h-3.22v-2.845h-.15q-.317.674-1.085 1.46-.767.767-2.04 1.329-1.255.543-3.09.543m.487-2.883q1.91 0 3.22-.749 1.31-.75 1.984-1.928.674-1.199.674-2.49V19.48q-.207.242-.899.449-.674.187-1.572.337-.88.15-1.723.262l-1.347.15a12 12 0 0 0-2.34.543q-1.086.355-1.76 1.067-.655.711-.655 1.946 0 1.666 1.235 2.528 1.254.842 3.183.842M86.364 17.42V30h-3.182V9.071h3.07v3.295h.3a5.96 5.96 0 0 1 2.227-2.583q1.497-.974 3.875-.974 2.115 0 3.706.861 1.592.862 2.471 2.621.9 1.74.899 4.418V30h-3.182V16.934q0-2.452-1.292-3.838-1.291-1.404-3.52-1.404-1.534 0-2.751.674t-1.928 1.947q-.693 1.272-.693 3.107m25.347 13.03q-2.622 0-4.624-1.33-2.004-1.329-3.126-3.762-1.124-2.453-1.124-5.766 0-3.295 1.124-5.71 1.141-2.433 3.145-3.744 2.002-1.329 4.642-1.329 2.059 0 3.239.674 1.198.674 1.834 1.535.636.843.992 1.385h.262V2.108h3.183V30h-3.07v-3.22h-.375a24 24 0 0 1-1.011 1.442q-.654.861-1.872 1.553-1.198.674-3.219.674m.411-2.884q1.947 0 3.276-1.01 1.329-1.03 2.022-2.827.693-1.815.693-4.175 0-2.358-.674-4.118-.673-1.778-2.022-2.752-1.329-.992-3.295-.992-2.021 0-3.369 1.048-1.348 1.05-2.022 2.827-.674 1.779-.674 3.987 0 2.228.674 4.044.693 1.816 2.041 2.901 1.347 1.068 3.35 1.067m30.701 2.883q-2.92 0-5.055-1.385-2.115-1.404-3.276-3.837-1.141-2.434-1.141-5.56 0-3.202 1.179-5.635 1.179-2.452 3.295-3.838 2.134-1.385 4.96-1.385 2.21 0 3.969.824 1.778.805 2.901 2.284 1.143 1.479 1.404 3.444h-3.219a5 5 0 0 0-.88-1.797q-.637-.842-1.685-1.348-1.03-.525-2.452-.524-1.872 0-3.276.973-1.404.975-2.19 2.752-.787 1.76-.787 4.137 0 2.415.768 4.231.768 1.797 2.171 2.79 1.423.99 3.314.991 1.89 0 3.238-.973 1.348-.992 1.779-2.696h3.219a7.26 7.26 0 0 1-1.347 3.333q-1.068 1.478-2.827 2.358-1.741.861-4.062.861m17.409.038q-1.984 0-3.613-.75-1.629-.766-2.583-2.208-.955-1.441-.955-3.482 0-1.797.712-2.901a5 5 0 0 1 1.89-1.76 10 10 0 0 1 2.621-.973 33 33 0 0 1 2.902-.506q1.908-.243 3.088-.374 1.198-.131 1.741-.45.562-.318.562-1.085v-.113q0-2.002-1.105-3.107-1.086-1.123-3.313-1.123-2.285 0-3.594 1.01-1.31.992-1.835 2.135l-3.07-1.086q.823-1.91 2.19-2.977a8.5 8.5 0 0 1 2.996-1.497 12.5 12.5 0 0 1 3.201-.43q1.01 0 2.321.243 1.31.225 2.546.973 1.254.73 2.059 2.228.824 1.48.824 3.968V30h-3.22v-2.845h-.15q-.318.674-1.086 1.46-.767.767-2.04 1.329-1.254.543-3.089.543m.487-2.883q1.91 0 3.22-.749 1.31-.75 1.984-1.928.674-1.199.674-2.49V19.48q-.206.242-.899.449-.674.187-1.572.337-.88.15-1.722.262l-1.348.15q-1.254.168-2.34.543-1.086.355-1.76 1.067-.655.711-.655 1.946 0 1.666 1.235 2.528 1.255.842 3.183.842M183.22 9.07v2.733h-11.269V9.071zM175.32 30V6.189q0-1.798.843-2.996a5.35 5.35 0 0 1 2.208-1.797 6.9 6.9 0 0 1 2.827-.599q1.199 0 1.947.206.768.188 1.123.356l-.936 2.77a7 7 0 0 0-.674-.206q-.412-.13-1.123-.13-1.591 0-2.321.823-.711.805-.711 2.359V30zm18.533.45q-3.015 0-5.223-1.348-2.19-1.349-3.37-3.763-1.179-2.434-1.179-5.635 0-3.22 1.161-5.672 1.16-2.452 3.257-3.838 2.115-1.385 4.942-1.385 1.629 0 3.238.543a8 8 0 0 1 2.921 1.76q1.329 1.216 2.115 3.22.786 2.002.786 4.923v1.385h-16.136v-2.77h14.395l-1.479 1.048q0-2.097-.655-3.725t-1.965-2.565q-1.292-.936-3.22-.936t-3.314.955a6.15 6.15 0 0 0-2.096 2.452 7.4 7.4 0 0 0-.73 3.257v1.835q0 2.377.823 4.025.825 1.647 2.303 2.508 1.479.842 3.426.842 1.254 0 2.283-.355a4.9 4.9 0 0 0 1.779-1.105q.749-.748 1.142-1.834l3.107.898a6.8 6.8 0 0 1-1.647 2.77q-1.142 1.18-2.846 1.854-1.703.655-3.818.655"/></svg>
